X:1     %Music
T:Cosher Bailey
B:Singing Together, Autumn 1984, BBC Publications
F:http://www.folkinfo.org/songs
M:2/4     %Meter
L:1/16     %
K:D
D2F2 |A2A2 A2B2 |A2HA2 G2F2 |E2F2 G2A2 | G2HG2
w:Co-sher Bai-ley had an en-gine, It was al-ways need-ing mend-ing, 
 F2E2 |D2E2 F2G2 |F2F2 E2D2 |A2A2 A2A2 | (E2HG2) 
w:And ac-cord-ing to her pow-er She could do four miles an hour_
F2E2 |D4 D4 |D4 G2F2 |D4 D4 | D4 D2E2 |A4 d4 |B4 A2G2 |F2F2 E2E2 | D4 |]
w: Did you ev-er see, did you e-ver see, Did you e-ver see such a fun-ny thing be-fore 
